src/assets/svg/icons/fa/nuevos/classic/light/indian-rupee-sign classic light.svg

<svg xmlns="http://www.w3.org/2000/svg" viewBox="0 0 320 512"><path d="M.0013 48C.0013 39.16 7.165 32 16 32H304C312.8 32 320 39.16 320 48C320 56.84 312.8 64 304 64H202.5C231.2 87.24 250.8 121.3 255.1 160H304C312.8 160 320 167.2 320 176C320 184.8 312.8 192 304 192H255.1C247.2 263.1 186.1 320 112 320H65.93L249.3 450.1C256.5 456.1 258.2 466.1 253 473.3C247.9 480.5 237.9 482.2 230.7 477L6.701 317C1.042 312.1-1.358 305.7 .7645 299.1C2.887 292.5 9.046 288 16 288H112C168.4 288 215.1 246.3 222.9 192H16C7.165 192 .0013 184.8 .0013 176C.0013 167.2 7.165 160 16 160H222.9C215.1 105.7 168.4 64 112 64H16C7.165 64 .0013 56.84 .0013 48V48z"/></svg>

<svg xmlns="http://www.w3.org/2000/svg" viewBox="0 0 320 512"><!--! Font Awesome Pro 6.4.0 by @fontawesome - https://fontawesome.com License - https://fontawesome.com/license (Commercial License) Copyright 2023 Fonticons, Inc. --><path d="M0 48c0-8.8 7.2-16 16-16h96H304c8.8 0 16 7.2 16 16s-7.2 16-16 16H202.5c28.7 23.2 48.3 57.3 52.6 96H304c8.8 0 16 7.2 16 16s-7.2 16-16 16H255.1c-8 72-69 128-143.1 128H65.9L249.3 451c7.2 5.1 8.9 15.1 3.7 22.3s-15.1 8.9-22.3 3.7L6.7 317C1 313-1.4 305.7 .8 299.1S9 288 16 288h96c56.4 0 103.1-41.7 110.9-96H16c-8.8 0-16-7.2-16-16s7.2-16 16-16H222.9c-7.8-54.3-54.4-96-110.9-96H16C7.2 64 0 56.8 0 48z"/></svg>
